svgs/lightroom.svg

<svg width="24" height="24" viewBox="0 0 24 24" fill="none" xmlns="http://www.w3.org/2000/svg">
<path d="M12.0735 20.3717H2.24855C2.0744 20.3717 2.00184 20.2824 2.00184 20.0889V3.83565C1.98733 3.73146 2.05989 3.62727 2.17599 3.61239C2.1905 3.61239 2.20502 3.61239 2.23404 3.61239H5.26714C5.3397 3.5975 5.44129 3.65704 5.44129 3.74634C5.44129 3.76123 5.44129 3.77611 5.44129 3.791V17.1419H12.6104C12.7701 17.1419 12.8136 17.2163 12.7846 17.3652L12.3347 20.1336C12.3347 20.208 12.2912 20.2824 12.2476 20.3271C12.1896 20.3569 12.1315 20.3717 12.0735 20.3717Z" fill="#31A8FF"/>
<path d="M14.5551 7.6459H17.2689C17.4286 7.6459 17.5447 7.75009 17.5882 7.89893C17.6463 8.00312 17.6898 8.13707 17.7188 8.27103C17.7478 8.43475 17.7769 8.59847 17.7914 8.7622C17.8059 8.94081 17.8204 9.1343 17.8204 9.32779C18.2848 8.77708 18.8508 8.31568 19.4748 7.95847C20.1859 7.5566 20.9841 7.36311 21.7823 7.39287C21.8839 7.37799 21.9855 7.45241 22 7.57148C22 7.58636 22 7.60125 22 7.63102V10.7418C22 10.8757 21.9274 10.9204 21.7533 10.9204C20.7519 10.8608 19.7361 11.0543 18.8218 11.4562C18.517 11.605 18.2122 11.7836 17.98 12.0516V20.1633C17.98 20.327 17.922 20.3866 17.7769 20.3866H14.7583C14.6277 20.4015 14.5261 20.327 14.5116 20.1931C14.5116 20.1782 14.5116 20.1484 14.5116 20.1336V11.3222C14.5116 10.9353 14.5116 10.5483 14.4971 10.1315C14.4825 9.71477 14.4825 9.29802 14.468 8.89615C14.4535 8.53894 14.4245 8.19661 14.381 7.83939C14.3664 7.76497 14.41 7.67567 14.4825 7.66079C14.5116 7.63102 14.5261 7.63102 14.5551 7.6459Z" fill="#31A8FF"/>
</svg>

<svg xmlns="http://www.w3.org/2000/svg" viewBox="0 0 24 24"><path d="M12.074 20.373H2.249c-.175 0-.247-.09-.247-.283V3.837a.199.199 0 0 1 .174-.224h3.091c.073-.014.174.045.174.134v13.395h7.17c.16 0 .203.075.174.224l-.45 2.769a.298.298 0 0 1-.087.193.378.378 0 0 1-.175.045m2.482-12.726h2.714c.16 0 .276.104.32.253.057.104.1.238.13.372.029.164.058.327.072.491.015.179.03.372.03.566a6.176 6.176 0 0 1 1.654-1.37 4.359 4.359 0 0 1 2.307-.565c.102-.015.203.06.218.178v3.17c0 .135-.073.18-.247.18a6.391 6.391 0 0 0-2.931.535c-.305.149-.61.328-.842.596v8.111c0 .164-.058.224-.203.224h-3.019c-.13.014-.232-.06-.246-.194v-8.87c0-.388 0-.775-.015-1.191-.014-.417-.014-.834-.029-1.236-.014-.357-.043-.7-.087-1.057-.015-.074.029-.163.101-.178.03-.03.044-.03.073-.015"/></svg>
